report_00007_2020-12-11T15:55:29.892Z/total-blocking-time/comparison/line/3_vs_4.svg

<svg width="640" height="500" xmlns="http://www.w3.org/2000/svg" xmlns:xlink="http://www.w3.org/1999/xlink"><path fill="#fff" d="M0 0h640v500H0z"/><defs><path id="d" stroke-width=".222" stroke="currentColor" d="M-1-1h2v2h-2z"/><path id="b" stroke-width=".222" stroke="currentColor" d="M0-1.33l-1.33 2h2.66z"/><path id="f" stroke-width=".222" stroke="currentColor" d="M0 1.33L1.265.411.782-1.067l-1.564-.009-.483 1.487z"/><use xlink:href="#b" id="c" stroke="currentColor" transform="rotate(180)"/><use xlink:href="#d" id="e" stroke="currentColor" transform="rotate(45)"/><circle id="a" stroke-width=".222" stroke="currentColor" cx="0" cy="0" r="1"/></defs><g fill="none" color="#000" stroke="currentColor"><path stroke="#000" d="M53.9 420.1h9m552.1 0h-9"/><text transform="translate(45.6 424)" stroke="none" fill="#000" font-family="Arial" font-size="12" text-anchor="end"><tspan>0</tspan></text></g><g fill="none" color="#000" stroke="currentColor"><path stroke="#000" d="M53.9 359.9h9m552.1 0h-9"/><text transform="translate(45.6 363.8)" stroke="none" fill="#000" font-family="Arial" font-size="12" text-anchor="end"><tspan>50</tspan></text></g><g fill="none" color="#000" stroke="currentColor"><path stroke="#000" d="M53.9 299.6h9m552.1 0h-9"/><text transform="translate(45.6 303.5)" stroke="none" fill="#000" font-family="Arial" font-size="12" text-anchor="end"><tspan>100</tspan></text></g><g fill="none" color="#000" stroke="currentColor"><path stroke="#000" d="M53.9 239.3h9m552.1 0h-9"/><text transform="translate(45.6 243.2)" stroke="none" fill="#000" font-family="Arial" font-size="12" text-anchor="end"><tspan>150</tspan></text></g><g fill="none" color="#000" stroke="currentColor"><path stroke="#000" d="M53.9 179.1h9m552.1 0h-9"/><text transform="translate(45.6 183)" stroke="none" fill="#000" font-family="Arial" font-size="12" text-anchor="end"><tspan>200</tspan></text></g><g fill="none" color="#000" stroke="currentColor"><path stroke="#000" d="M53.9 118.8h9m552.1 0h-9"/><text transform="translate(45.6 122.7)" stroke="none" fill="#000" font-family="Arial" font-size="12" text-anchor="end"><tspan>250</tspan></text></g><g fill="none" color="#000" stroke="currentColor"><path stroke="#000" d="M53.9 58.5h9m552.1 0h-9"/><text transform="translate(45.6 62.4)" stroke="none" fill="#000" font-family="Arial" font-size="12" text-anchor="end"><tspan>300</tspan></text></g><g fill="none" color="#000" stroke="currentColor"><path stroke="#000" d="M53.9 428v-9m0-400.9v9"/><text transform="translate(53.9 449.9)" stroke="none" fill="#000" font-family="Arial" font-size="12" text-anchor="middle"><tspan>0</tspan></text></g><g fill="none" color="#000" stroke="currentColor"><path stroke="#000" d="M110.6 428v-9m0-400.9v9"/><text transform="translate(110.6 449.9)" stroke="none" fill="#000" font-family="Arial" font-size="12" text-anchor="middle"><tspan>10</tspan></text></g><g fill="none" color="#000" stroke="currentColor"><path stroke="#000" d="M167.3 428v-9m0-400.9v9"/><text transform="translate(167.3 449.9)" stroke="none" fill="#000" font-family="Arial" font-size="12" text-anchor="middle"><tspan>20</tspan></text></g><g fill="none" color="#000" stroke="currentColor"><path stroke="#000" d="M223.9 428v-9m0-400.9v9"/><text transform="translate(223.9 449.9)" stroke="none" fill="#000" font-family="Arial" font-size="12" text-anchor="middle"><tspan>30</tspan></text></g><g fill="none" color="#000" stroke="currentColor"><path stroke="#000" d="M280.6 428v-9m0-400.9v9"/><text transform="translate(280.6 449.9)" stroke="none" fill="#000" font-family="Arial" font-size="12" text-anchor="middle"><tspan>40</tspan></text></g><g fill="none" color="#000" stroke="currentColor"><path stroke="#000" d="M337.3 428v-9m0-400.9v9"/><text transform="translate(337.3 449.9)" stroke="none" fill="#000" font-family="Arial" font-size="12" text-anchor="middle"><tspan>50</tspan></text></g><g fill="none" color="#000" stroke="currentColor"><path stroke="#000" d="M394 428v-9m0-400.9v9"/><text transform="translate(394 449.9)" stroke="none" fill="#000" font-family="Arial" font-size="12" text-anchor="middle"><tspan>60</tspan></text></g><g fill="none" color="#000" stroke="currentColor"><path stroke="#000" d="M450.6 428v-9m0-400.9v9"/><text transform="translate(450.6 449.9)" stroke="none" fill="#000" font-family="Arial" font-size="12" text-anchor="middle"><tspan>70</tspan></text></g><g fill="none" color="#000" stroke="currentColor"><path stroke="#000" d="M507.3 428v-9m0-400.9v9"/><text transform="translate(507.3 449.9)" stroke="none" fill="#000" font-family="Arial" font-size="12" text-anchor="middle"><tspan>80</tspan></text></g><g fill="none" color="#000" stroke="currentColor"><path stroke="#000" d="M564 428v-9m0-400.9v9"/><text transform="translate(564 449.9)" stroke="none" fill="#000" font-family="Arial" font-size="12" text-anchor="middle"><tspan>90</tspan></text></g><path stroke="#000" d="M53.9 18.1V428H615V18.1H53.9z" fill="none" color="#000"/><text transform="translate(275.6 467.9)" stroke="none" fill="#000" font-family="Arial" font-size="12" text-anchor="end" color="#000"><tspan>pages+cached+nointeractive</tspan></text><path stroke="#9400D3" d="M283.9 464h42.2M53.9 54.9l5.7 39.8 5.6-60.3 5.7 35 5.7-3.6 5.6 27.7 5.7-31.4 5.7 32.6 5.6-26.5 5.7-42.2 5.7 39.8 5.6-1.2 5.7 13.2 5.7-15.7 5.6 32.6 5.7 1.2 5.7-31.3 5.7 30.1 5.6-3.6 5.7-25.3 5.7 26.5 5.6-2.4 5.7 3.6 5.7-28.9h5.6l5.7 26.5 5.7 8.4 5.6-4.8h5.7l5.7 1.2 5.6-33.8 5.7 29 5.7 3.6 5.6-31.4 5.7 31.4 5.7 2.4 5.6-13.3 5.7 3.7 5.7-22.9 5.6 26.5 5.7 3.6 5.7-33.8 5.6 41 5.7-38.6 5.7 30.2 5.6-6 5.7 1.2h5.7l5.6 1.2 5.7 4.8 5.7-1.2 5.7-3.6 5.6-1.2 5.7 10.8 5.7-7.2 5.6 2.4 5.7-38.6 5.7 13.3 5.6 21.7 5.7 7.2 5.7-6 5.6-27.7 5.7 27.7 5.7 3.6 5.6 4.8 5.7-7.2h5.7l5.6 2.4 5.7-19.3 5.7 14.5 5.6-39.8 5.7 12 5.7 29 5.6-29 5.7 27.8 5.7 1.2h5.6l5.7 4.8 5.7-4.8 5.6 7.2 5.7-18.1 5.7 12.1 5.6-22.9 5.7 22.9 5.7-1.2 5.7-41 5.6 42.2 5.7-30.2 5.7 25.4 5.6-7.3 5.7 8.5 5.7-21.7 5.6 27.7 5.7 1.2 5.7-7.2 5.6-26.6 5.7 33.8 5.7-2.4 5.6-18.1 5.7-1.2" fill="none" color="#000"/><text transform="translate(275.6 485.9)" stroke="none" fill="#000" font-family="Arial" font-size="12" text-anchor="end" color="#000"><tspan>pages+cached+noadtech</tspan></text><path stroke="#009E73" d="M283.9 482h42.2M53.9 420.1H615" fill="none" color="#000"/><text transform="translate(550.2 467.9)" stroke="none" fill="#000" font-family="Arial" font-size="12" text-anchor="end" color="#000"><tspan>score p10=287</tspan></text><path stroke="#56B4E9" d="M558.5 464h42.2M53.9 74.2H615" fill="none" color="#000"/><g><text transform="translate(550.2 485.9)" stroke="none" fill="#000" font-family="Arial" font-size="12" text-anchor="end" color="#000"><tspan>score median=600</tspan></text><path stroke="#E69F00" d="M558.5 482h42.2" fill="none" color="#000"/></g><g fill="none" color="#000" stroke="currentColor"><path stroke="#000" d="M53.9 18.1V428H615V18.1H53.9z"/></g></svg>

<?xml version="1.0" encoding="utf-8"  standalone="no"?>
<svg 
 width="640" height="500"
 viewBox="0 0 640 500"
 xmlns="http://www.w3.org/2000/svg"
 xmlns:xlink="http://www.w3.org/1999/xlink"
>

<title>Gnuplot</title>
<desc>Produced by GNUPLOT 5.4 patchlevel 0 </desc>

<g id="gnuplot_canvas">

<rect x="0" y="0" width="640" height="500" fill="#ffffff"/>
<defs>

	<circle id='gpDot' r='0.5' stroke-width='0.5' stroke='currentColor'/>
	<path id='gpPt0' stroke-width='0.222' stroke='currentColor' d='M-1,0 h2 M0,-1 v2'/>
	<path id='gpPt1' stroke-width='0.222' stroke='currentColor' d='M-1,-1 L1,1 M1,-1 L-1,1'/>
	<path id='gpPt2' stroke-width='0.222' stroke='currentColor' d='M-1,0 L1,0 M0,-1 L0,1 M-1,-1 L1,1 M-1,1 L1,-1'/>
	<rect id='gpPt3' stroke-width='0.222' stroke='currentColor' x='-1' y='-1' width='2' height='2'/>
	<rect id='gpPt4' stroke-width='0.222' stroke='currentColor' fill='currentColor' x='-1' y='-1' width='2' height='2'/>
	<circle id='gpPt5' stroke-width='0.222' stroke='currentColor' cx='0' cy='0' r='1'/>
	<use xlink:href='#gpPt5' id='gpPt6' fill='currentColor' stroke='none'/>
	<path id='gpPt7' stroke-width='0.222' stroke='currentColor' d='M0,-1.33 L-1.33,0.67 L1.33,0.67 z'/>
	<use xlink:href='#gpPt7' id='gpPt8' fill='currentColor' stroke='none'/>
	<use xlink:href='#gpPt7' id='gpPt9' stroke='currentColor' transform='rotate(180)'/>
	<use xlink:href='#gpPt9' id='gpPt10' fill='currentColor' stroke='none'/>
	<use xlink:href='#gpPt3' id='gpPt11' stroke='currentColor' transform='rotate(45)'/>
	<use xlink:href='#gpPt11' id='gpPt12' fill='currentColor' stroke='none'/>
	<path id='gpPt13' stroke-width='0.222' stroke='currentColor' d='M0,1.330 L1.265,0.411 L0.782,-1.067 L-0.782,-1.076 L-1.265,0.411 z'/>
	<use xlink:href='#gpPt13' id='gpPt14' fill='currentColor' stroke='none'/>
	<filter id='textbox' filterUnits='objectBoundingBox' x='0' y='0' height='1' width='1'>
	  <feFlood flood-color='#FFFFFF' flood-opacity='1' result='bgnd'/>
	  <feComposite in='SourceGraphic' in2='bgnd' operator='atop'/>
	</filter>
	<filter id='greybox' filterUnits='objectBoundingBox' x='0' y='0' height='1' width='1'>
	  <feFlood flood-color='lightgrey' flood-opacity='1' result='grey'/>
	  <feComposite in='SourceGraphic' in2='grey' operator='atop'/>
	</filter>
</defs>
<g fill="none" color="#FFFFFF" stroke="black" stroke-width="1.00" stroke-linecap="butt" stroke-linejoin="miter">
</g>
<g fill="none" color="black" stroke="currentColor" stroke-width="1.00" stroke-linecap="butt" stroke-linejoin="miter">
	<path stroke='black'  d='M53.9,420.1 L62.9,420.1 M615.0,420.1 L606.0,420.1  '/>	<g transform="translate(45.6,424.0)" stroke="none" fill="black" font-family="Arial" font-size="12.00"  text-anchor="end">
		<text><tspan font-family="Arial" > 0</tspan></text>
	</g>
</g>
<g fill="none" color="black" stroke="currentColor" stroke-width="1.00" stroke-linecap="butt" stroke-linejoin="miter">
	<path stroke='black'  d='M53.9,359.9 L62.9,359.9 M615.0,359.9 L606.0,359.9  '/>	<g transform="translate(45.6,363.8)" stroke="none" fill="black" font-family="Arial" font-size="12.00"  text-anchor="end">
		<text><tspan font-family="Arial" > 50</tspan></text>
	</g>
</g>
<g fill="none" color="black" stroke="currentColor" stroke-width="1.00" stroke-linecap="butt" stroke-linejoin="miter">
	<path stroke='black'  d='M53.9,299.6 L62.9,299.6 M615.0,299.6 L606.0,299.6  '/>	<g transform="translate(45.6,303.5)" stroke="none" fill="black" font-family="Arial" font-size="12.00"  text-anchor="end">
		<text><tspan font-family="Arial" > 100</tspan></text>
	</g>
</g>
<g fill="none" color="black" stroke="currentColor" stroke-width="1.00" stroke-linecap="butt" stroke-linejoin="miter">
	<path stroke='black'  d='M53.9,239.3 L62.9,239.3 M615.0,239.3 L606.0,239.3  '/>	<g transform="translate(45.6,243.2)" stroke="none" fill="black" font-family="Arial" font-size="12.00"  text-anchor="end">
		<text><tspan font-family="Arial" > 150</tspan></text>
	</g>
</g>
<g fill="none" color="black" stroke="currentColor" stroke-width="1.00" stroke-linecap="butt" stroke-linejoin="miter">
	<path stroke='black'  d='M53.9,179.1 L62.9,179.1 M615.0,179.1 L606.0,179.1  '/>	<g transform="translate(45.6,183.0)" stroke="none" fill="black" font-family="Arial" font-size="12.00"  text-anchor="end">
		<text><tspan font-family="Arial" > 200</tspan></text>
	</g>
</g>
<g fill="none" color="black" stroke="currentColor" stroke-width="1.00" stroke-linecap="butt" stroke-linejoin="miter">
	<path stroke='black'  d='M53.9,118.8 L62.9,118.8 M615.0,118.8 L606.0,118.8  '/>	<g transform="translate(45.6,122.7)" stroke="none" fill="black" font-family="Arial" font-size="12.00"  text-anchor="end">
		<text><tspan font-family="Arial" > 250</tspan></text>
	</g>
</g>
<g fill="none" color="black" stroke="currentColor" stroke-width="1.00" stroke-linecap="butt" stroke-linejoin="miter">
	<path stroke='black'  d='M53.9,58.5 L62.9,58.5 M615.0,58.5 L606.0,58.5  '/>	<g transform="translate(45.6,62.4)" stroke="none" fill="black" font-family="Arial" font-size="12.00"  text-anchor="end">
		<text><tspan font-family="Arial" > 300</tspan></text>
	</g>
</g>
<g fill="none" color="black" stroke="currentColor" stroke-width="1.00" stroke-linecap="butt" stroke-linejoin="miter">
	<path stroke='black'  d='M53.9,428.0 L53.9,419.0 M53.9,18.1 L53.9,27.1  '/>	<g transform="translate(53.9,449.9)" stroke="none" fill="black" font-family="Arial" font-size="12.00"  text-anchor="middle">
		<text><tspan font-family="Arial" > 0</tspan></text>
	</g>
</g>
<g fill="none" color="black" stroke="currentColor" stroke-width="1.00" stroke-linecap="butt" stroke-linejoin="miter">
	<path stroke='black'  d='M110.6,428.0 L110.6,419.0 M110.6,18.1 L110.6,27.1  '/>	<g transform="translate(110.6,449.9)" stroke="none" fill="black" font-family="Arial" font-size="12.00"  text-anchor="middle">
		<text><tspan font-family="Arial" > 10</tspan></text>
	</g>
</g>
<g fill="none" color="black" stroke="currentColor" stroke-width="1.00" stroke-linecap="butt" stroke-linejoin="miter">
	<path stroke='black'  d='M167.3,428.0 L167.3,419.0 M167.3,18.1 L167.3,27.1  '/>	<g transform="translate(167.3,449.9)" stroke="none" fill="black" font-family="Arial" font-size="12.00"  text-anchor="middle">
		<text><tspan font-family="Arial" > 20</tspan></text>
	</g>
</g>
<g fill="none" color="black" stroke="currentColor" stroke-width="1.00" stroke-linecap="butt" stroke-linejoin="miter">
	<path stroke='black'  d='M223.9,428.0 L223.9,419.0 M223.9,18.1 L223.9,27.1  '/>	<g transform="translate(223.9,449.9)" stroke="none" fill="black" font-family="Arial" font-size="12.00"  text-anchor="middle">
		<text><tspan font-family="Arial" > 30</tspan></text>
	</g>
</g>
<g fill="none" color="black" stroke="currentColor" stroke-width="1.00" stroke-linecap="butt" stroke-linejoin="miter">
	<path stroke='black'  d='M280.6,428.0 L280.6,419.0 M280.6,18.1 L280.6,27.1  '/>	<g transform="translate(280.6,449.9)" stroke="none" fill="black" font-family="Arial" font-size="12.00"  text-anchor="middle">
		<text><tspan font-family="Arial" > 40</tspan></text>
	</g>
</g>
<g fill="none" color="black" stroke="currentColor" stroke-width="1.00" stroke-linecap="butt" stroke-linejoin="miter">
	<path stroke='black'  d='M337.3,428.0 L337.3,419.0 M337.3,18.1 L337.3,27.1  '/>	<g transform="translate(337.3,449.9)" stroke="none" fill="black" font-family="Arial" font-size="12.00"  text-anchor="middle">
		<text><tspan font-family="Arial" > 50</tspan></text>
	</g>
</g>
<g fill="none" color="black" stroke="currentColor" stroke-width="1.00" stroke-linecap="butt" stroke-linejoin="miter">
	<path stroke='black'  d='M394.0,428.0 L394.0,419.0 M394.0,18.1 L394.0,27.1  '/>	<g transform="translate(394.0,449.9)" stroke="none" fill="black" font-family="Arial" font-size="12.00"  text-anchor="middle">
		<text><tspan font-family="Arial" > 60</tspan></text>
	</g>
</g>
<g fill="none" color="black" stroke="currentColor" stroke-width="1.00" stroke-linecap="butt" stroke-linejoin="miter">
	<path stroke='black'  d='M450.6,428.0 L450.6,419.0 M450.6,18.1 L450.6,27.1  '/>	<g transform="translate(450.6,449.9)" stroke="none" fill="black" font-family="Arial" font-size="12.00"  text-anchor="middle">
		<text><tspan font-family="Arial" > 70</tspan></text>
	</g>
</g>
<g fill="none" color="black" stroke="currentColor" stroke-width="1.00" stroke-linecap="butt" stroke-linejoin="miter">
	<path stroke='black'  d='M507.3,428.0 L507.3,419.0 M507.3,18.1 L507.3,27.1  '/>	<g transform="translate(507.3,449.9)" stroke="none" fill="black" font-family="Arial" font-size="12.00"  text-anchor="middle">
		<text><tspan font-family="Arial" > 80</tspan></text>
	</g>
</g>
<g fill="none" color="black" stroke="currentColor" stroke-width="1.00" stroke-linecap="butt" stroke-linejoin="miter">
	<path stroke='black'  d='M564.0,428.0 L564.0,419.0 M564.0,18.1 L564.0,27.1  '/>	<g transform="translate(564.0,449.9)" stroke="none" fill="black" font-family="Arial" font-size="12.00"  text-anchor="middle">
		<text><tspan font-family="Arial" > 90</tspan></text>
	</g>
</g>
<g fill="none" color="black" stroke="currentColor" stroke-width="1.00" stroke-linecap="butt" stroke-linejoin="miter">
</g>
<g fill="none" color="black" stroke="currentColor" stroke-width="1.00" stroke-linecap="butt" stroke-linejoin="miter">
	<path stroke='black'  d='M53.9,18.1 L53.9,428.0 L615.0,428.0 L615.0,18.1 L53.9,18.1 Z  '/></g>
<g fill="none" color="black" stroke="currentColor" stroke-width="1.00" stroke-linecap="butt" stroke-linejoin="miter">
</g>
	<g id="gnuplot_plot_1" ><title>pages+cached+nointeractive</title>
<g fill="none" color="black" stroke="currentColor" stroke-width="1.00" stroke-linecap="butt" stroke-linejoin="miter">
	<g transform="translate(275.6,467.9)" stroke="none" fill="black" font-family="Arial" font-size="12.00"  text-anchor="end">
		<text><tspan font-family="Arial" >pages+cached+nointeractive</tspan></text>
	</g>
</g>
<g fill="none" color="black" stroke="currentColor" stroke-width="1.00" stroke-linecap="butt" stroke-linejoin="miter">
	<path stroke='rgb(148,   0, 211)'  d='M283.9,464.0 L326.1,464.0 M53.9,54.9 L59.6,94.7 L65.2,34.4 L70.9,69.4 L76.6,65.8 L82.2,93.5
		L87.9,62.1 L93.6,94.7 L99.2,68.2 L104.9,26.0 L110.6,65.8 L116.2,64.6 L121.9,77.8 L127.6,62.1
		L133.2,94.7 L138.9,95.9 L144.6,64.6 L150.3,94.7 L155.9,91.1 L161.6,65.8 L167.3,92.3 L172.9,89.9
		L178.6,93.5 L184.3,64.6 L189.9,64.6 L195.6,91.1 L201.3,99.5 L206.9,94.7 L212.6,94.7 L218.3,95.9
		L223.9,62.1 L229.6,91.1 L235.3,94.7 L240.9,63.3 L246.6,94.7 L252.3,97.1 L257.9,83.8 L263.6,87.5
		L269.3,64.6 L274.9,91.1 L280.6,94.7 L286.3,60.9 L291.9,101.9 L297.6,63.3 L303.3,93.5 L308.9,87.5
		L314.6,88.7 L320.3,88.7 L325.9,89.9 L331.6,94.7 L337.3,93.5 L343.0,89.9 L348.6,88.7 L354.3,99.5
		L360.0,92.3 L365.6,94.7 L371.3,56.1 L377.0,69.4 L382.6,91.1 L388.3,98.3 L394.0,92.3 L399.6,64.6
		L405.3,92.3 L411.0,95.9 L416.6,100.7 L422.3,93.5 L428.0,93.5 L433.6,95.9 L439.3,76.6 L445.0,91.1
		L450.6,51.3 L456.3,63.3 L462.0,92.3 L467.6,63.3 L473.3,91.1 L479.0,92.3 L484.6,92.3 L490.3,97.1
		L496.0,92.3 L501.6,99.5 L507.3,81.4 L513.0,93.5 L518.6,70.6 L524.3,93.5 L530.0,92.3 L535.7,51.3
		L541.3,93.5 L547.0,63.3 L552.7,88.7 L558.3,81.4 L564.0,89.9 L569.7,68.2 L575.3,95.9 L581.0,97.1
		L586.7,89.9 L592.3,63.3 L598.0,97.1 L603.7,94.7 L609.3,76.6 L615.0,75.4  '/></g>
	</g>
	<g id="gnuplot_plot_2" ><title>pages+cached+noadtech</title>
<g fill="none" color="black" stroke="currentColor" stroke-width="1.00" stroke-linecap="butt" stroke-linejoin="miter">
	<g transform="translate(275.6,485.9)" stroke="none" fill="black" font-family="Arial" font-size="12.00"  text-anchor="end">
		<text><tspan font-family="Arial" >pages+cached+noadtech</tspan></text>
	</g>
</g>
<g fill="none" color="black" stroke="currentColor" stroke-width="1.00" stroke-linecap="butt" stroke-linejoin="miter">
	<path stroke='rgb(  0, 158, 115)'  d='M283.9,482.0 L326.1,482.0 M53.9,420.1 L59.6,420.1 L65.2,420.1 L70.9,420.1 L76.6,420.1 L82.2,420.1
		L87.9,420.1 L93.6,420.1 L99.2,420.1 L104.9,420.1 L110.6,420.1 L116.2,420.1 L121.9,420.1 L127.6,420.1
		L133.2,420.1 L138.9,420.1 L144.6,420.1 L150.3,420.1 L155.9,420.1 L161.6,420.1 L167.3,420.1 L172.9,420.1
		L178.6,420.1 L184.3,420.1 L189.9,420.1 L195.6,420.1 L201.3,420.1 L206.9,420.1 L212.6,420.1 L218.3,420.1
		L223.9,420.1 L229.6,420.1 L235.3,420.1 L240.9,420.1 L246.6,420.1 L252.3,420.1 L257.9,420.1 L263.6,420.1
		L269.3,420.1 L274.9,420.1 L280.6,420.1 L286.3,420.1 L291.9,420.1 L297.6,420.1 L303.3,420.1 L308.9,420.1
		L314.6,420.1 L320.3,420.1 L325.9,420.1 L331.6,420.1 L337.3,420.1 L343.0,420.1 L348.6,420.1 L354.3,420.1
		L360.0,420.1 L365.6,420.1 L371.3,420.1 L377.0,420.1 L382.6,420.1 L388.3,420.1 L394.0,420.1 L399.6,420.1
		L405.3,420.1 L411.0,420.1 L416.6,420.1 L422.3,420.1 L428.0,420.1 L433.6,420.1 L439.3,420.1 L445.0,420.1
		L450.6,420.1 L456.3,420.1 L462.0,420.1 L467.6,420.1 L473.3,420.1 L479.0,420.1 L484.6,420.1 L490.3,420.1
		L496.0,420.1 L501.6,420.1 L507.3,420.1 L513.0,420.1 L518.6,420.1 L524.3,420.1 L530.0,420.1 L535.7,420.1
		L541.3,420.1 L547.0,420.1 L552.7,420.1 L558.3,420.1 L564.0,420.1 L569.7,420.1 L575.3,420.1 L581.0,420.1
		L586.7,420.1 L592.3,420.1 L598.0,420.1 L603.7,420.1 L609.3,420.1 L615.0,420.1  '/></g>
	</g>
	<g id="gnuplot_plot_3" ><title>score p10=287</title>
<g fill="none" color="black" stroke="currentColor" stroke-width="1.00" stroke-linecap="butt" stroke-linejoin="miter">
	<g transform="translate(550.2,467.9)" stroke="none" fill="black" font-family="Arial" font-size="12.00"  text-anchor="end">
		<text><tspan font-family="Arial" >score p10=287</tspan></text>
	</g>
</g>
<g fill="none" color="black" stroke="currentColor" stroke-width="1.00" stroke-linecap="butt" stroke-linejoin="miter">
	<path stroke='rgb( 86, 180, 233)'  d='M558.5,464.0 L600.7,464.0 M53.9,74.2 L59.6,74.2 L65.2,74.2 L70.9,74.2 L76.6,74.2 L82.2,74.2
		L87.9,74.2 L93.6,74.2 L99.2,74.2 L104.9,74.2 L110.6,74.2 L116.2,74.2 L121.9,74.2 L127.6,74.2
		L133.2,74.2 L138.9,74.2 L144.6,74.2 L150.3,74.2 L155.9,74.2 L161.6,74.2 L167.3,74.2 L172.9,74.2
		L178.6,74.2 L184.3,74.2 L189.9,74.2 L195.6,74.2 L201.3,74.2 L206.9,74.2 L212.6,74.2 L218.3,74.2
		L223.9,74.2 L229.6,74.2 L235.3,74.2 L240.9,74.2 L246.6,74.2 L252.3,74.2 L257.9,74.2 L263.6,74.2
		L269.3,74.2 L274.9,74.2 L280.6,74.2 L286.3,74.2 L291.9,74.2 L297.6,74.2 L303.3,74.2 L308.9,74.2
		L314.6,74.2 L320.3,74.2 L325.9,74.2 L331.6,74.2 L337.3,74.2 L343.0,74.2 L348.6,74.2 L354.3,74.2
		L360.0,74.2 L365.6,74.2 L371.3,74.2 L377.0,74.2 L382.6,74.2 L388.3,74.2 L394.0,74.2 L399.6,74.2
		L405.3,74.2 L411.0,74.2 L416.6,74.2 L422.3,74.2 L428.0,74.2 L433.6,74.2 L439.3,74.2 L445.0,74.2
		L450.6,74.2 L456.3,74.2 L462.0,74.2 L467.6,74.2 L473.3,74.2 L479.0,74.2 L484.6,74.2 L490.3,74.2
		L496.0,74.2 L501.6,74.2 L507.3,74.2 L513.0,74.2 L518.6,74.2 L524.3,74.2 L530.0,74.2 L535.7,74.2
		L541.3,74.2 L547.0,74.2 L552.7,74.2 L558.3,74.2 L564.0,74.2 L569.7,74.2 L575.3,74.2 L581.0,74.2
		L586.7,74.2 L592.3,74.2 L598.0,74.2 L603.7,74.2 L609.3,74.2 L615.0,74.2  '/></g>
	</g>
	<g id="gnuplot_plot_4" ><title>score median=600</title>
<g fill="none" color="black" stroke="currentColor" stroke-width="1.00" stroke-linecap="butt" stroke-linejoin="miter">
	<g transform="translate(550.2,485.9)" stroke="none" fill="black" font-family="Arial" font-size="12.00"  text-anchor="end">
		<text><tspan font-family="Arial" >score median=600</tspan></text>
	</g>
</g>
<g fill="none" color="black" stroke="currentColor" stroke-width="1.00" stroke-linecap="butt" stroke-linejoin="miter">
	<path stroke='rgb(230, 159,   0)'  d='M558.5,482.0 L600.7,482.0  '/></g>
	</g>
<g fill="none" color="#FFFFFF" stroke="rgb(230, 159,   0)" stroke-width="2.00" stroke-linecap="butt" stroke-linejoin="miter">
</g>
<g fill="none" color="black" stroke="currentColor" stroke-width="2.00" stroke-linecap="butt" stroke-linejoin="miter">
</g>
<g fill="none" color="black" stroke="black" stroke-width="1.00" stroke-linecap="butt" stroke-linejoin="miter">
</g>
<g fill="none" color="black" stroke="currentColor" stroke-width="1.00" stroke-linecap="butt" stroke-linejoin="miter">
	<path stroke='black'  d='M53.9,18.1 L53.9,428.0 L615.0,428.0 L615.0,18.1 L53.9,18.1 Z  '/></g>
<g fill="none" color="black" stroke="currentColor" stroke-width="1.00" stroke-linecap="butt" stroke-linejoin="miter">
</g>
</g>
</svg>
